X: 32778
T: Pontypridd
R: reel
M: 4/4
K: Ddorian
D|DAEG|F/E/D2A|AdAc|B/A/G2A|
AdAB|c/d/BA/G/F/E/|DAE(3E/F/G/|F/E/D2||

